;FLAVOR:Marlin
;TIME:6917
;Filament used: 1.8171m
;Layer height: 0.1
;MINX:66.883
;MINY:62.181
;MINZ:0.3
;MAXX:132.734
;MAXY:138.663
;MAXZ:33.7
;Generated with Cura_SteamEngine 4.13.1
M140 S60
M105
M190 S60
M104 S200
M105
M109 S200
M82 ;absolute extrusion mode
G21 ;metric values
 G90 ;absolute positioning
 M82 ;set extruder to absolute mode
 M107 ;start with the fan off
 G28 X0 Y0 ;move X/Y to min endstops
 G28 Z0 ;move Z to min endstops
 G1 Z15.0 F120 ;move the platform down 15mm
 G92 E0 ;zero the extruded length
 G1 F200 E6 ;extrude 6 mm of feed stock
 G92 E0 ;zero the extruded length again
 G1 F120 
 ;Put printing message on LCD screen
 M117 Printing...
G92 E0
G92 E0
G1 F1500 E-6.5
;LAYER_COUNT:336
;LAYER:0
M107
G0 F3600 X70.56 Y88.098 Z0.3
;TYPE:SKIRT
G1 F1500 E0
G1 F1800 X71.201 Y87.637 E0.03939
G1 X71.886 Y87.243 E0.07882
G1 X72.607 Y86.921 E0.11821
G1 X73.039 Y86.747 E0.14145
G1 X73.758 Y86.421 E0.18083
G1 X74.506 Y86.169 E0.22021
G1 X75.276 Y85.994 E0.25961
G1 X76.06 Y85.898 E0.29901
G1 X76.85 Y85.882 E0.33843
G1 X77.158 Y85.907 E0.35385
G1 X77.681 Y85.809 E0.3804
G1 X78.468 Y85.743 E0.4198
G1 X78.858 Y85.711 E0.43932
G1 X79.79 Y85.698 E0.48582
G1 X81.09 Y85.757 E0.55075
G1 X81.228 Y85.756 E0.55763
G1 X82.017 Y85.789 E0.59703
G1 X82.728 Y85.892 E0.63287
G1 X83.406 Y85.961 E0.66687
G1 X83.451 Y85.963 E0.66912
G1 X83.318 Y85.33 E0.70139
G1 X83.224 Y84.238 E0.75607
G1 X83.196 Y83.81 E0.77747
G1 X83.155 Y83.022 E0.81684
G1 X83.194 Y82.233 E0.85625
G1 X83.313 Y81.452 E0.89566
G1 X83.51 Y80.687 E0.93507
G1 X83.783 Y79.947 E0.97442
G1 X84.13 Y79.237 E1.01385
G1 X84.547 Y78.566 E1.05326
G1 X85.029 Y77.941 E1.09264
G1 X85.572 Y77.368 E1.13203
G1 X86.171 Y76.853 E1.17144
G1 X86.818 Y76.4 E1.21084
G1 X87.508 Y76.016 E1.25024
G1 X88.385 Y75.649 E1.29767
G1 X88.731 Y75.498 E1.3165
G1 X89.362 Y75.023 E1.3559
G1 X90.038 Y74.615 E1.3953
G1 X90.752 Y74.277 E1.43471
G1 X90.821 Y74.253 E1.43835
G1 X90.906 Y73.512 E1.47556
G1 X90.933 Y73.365 E1.48302
G1 X91.115 Y72.596 E1.52245
G1 X91.515 Y71.522 E1.57962
G1 X91.626 Y71.28 E1.59291
G1 X91.944 Y70.671 E1.62718
G1 X92.147 Y69.975 E1.66335
G1 X92.276 Y69.476 E1.68907
G1 X92.287 Y69.419 E1.69196
G1 X92.469 Y68.65 E1.73139
G1 X92.694 Y67.979 E1.7667
G1 X92.717 Y67.895 E1.77104
G1 X93.003 Y67.159 E1.81044
G1 X93.362 Y66.455 E1.84986
G1 X93.79 Y65.792 E1.88923
G1 X94.283 Y65.175 E1.92863
G1 X94.836 Y64.611 E1.96804
G1 X95.246 Y64.259 E1.995
G1 X95.632 Y63.95 E2.01967
G1 X96.273 Y63.488 E2.05909
G1 X96.957 Y63.094 E2.09847
G1 X97.61 Y62.797 E2.13426
G1 X97.76 Y62.737 E2.14232
G1 X98.507 Y62.481 E2.18172
G1 X99.276 Y62.302 E2.22111
G1 X100.06 Y62.202 E2.26054
G1 X100.849 Y62.181 E2.29991
G1 X101.621 Y62.24 E2.33854
G1 X101.928 Y62.239 E2.35386
G1 X102.714 Y62.316 E2.39326
G1 X102.904 Y62.324 E2.40275
G1 X103.689 Y62.406 E2.44212
G1 X104.463 Y62.567 E2.48157
G1 X105.215 Y62.805 E2.52092
G1 X105.879 Y63.089 E2.55695
G1 X106.316 Y63.3 E2.58116
G1 X107.009 Y63.679 E2.62056
G1 X107.66 Y64.126 E2.65996
G1 X108.263 Y64.636 E2.69936
G1 X108.81 Y65.205 E2.73874
G1 X109.298 Y65.827 E2.77818
G1 X109.72 Y66.494 E2.81756
G1 X110.072 Y67.201 E2.85696
G1 X110.264 Y67.682 E2.8828
G1 X110.487 Y68.375 E2.91912
G1 X110.654 Y68.863 E2.94485
G1 X110.833 Y69.632 E2.98425
G1 X110.934 Y70.415 E3.02363
G1 X110.95 Y71.121 E3.05886
G1 X111.054 Y71.809 E3.09358
G1 X111.349 Y72.665 E3.13875
G1 X111.443 Y73.013 E3.15673
G1 X111.61 Y73.785 E3.19614
G1 X111.698 Y74.57 E3.23555
G1 X111.707 Y75.359 E3.27492
G1 X111.693 Y75.511 E3.28253
G1 X112.018 Y75.684 E3.3009
G1 X112.674 Y76.123 E3.34028
G1 X113.282 Y76.627 E3.37968
G1 X113.837 Y77.189 E3.41909
G1 X113.998 Y77.306 E3.42901
G1 X114.442 Y77.565 E3.45466
G1 X114.695 Y77.724 E3.46957
G1 X115.342 Y78.177 E3.50897
G1 X115.939 Y78.694 E3.54837
G1 X116.481 Y79.268 E3.58776
G1 X116.962 Y79.894 E3.62714
G1 X117.378 Y80.566 E3.66657
G1 X117.723 Y81.276 E3.70596
G1 X117.995 Y82.018 E3.74538
G1 X118.19 Y82.783 E3.78477
G1 X118.307 Y83.564 E3.82417
G1 X118.345 Y84.352 E3.86353
G1 X118.336 Y84.518 E3.87182
G1 X119.198 Y84.293 E3.91627
G1 X119.82 Y84.158 E3.94802
G1 X119.997 Y84.127 E3.95699
G1 X120.781 Y84.03 E3.9964
G1 X121.343 Y84.01 E4.02446
G1 X122.512 Y84.01 E4.08278
G1 X123.301 Y84.05 E4.12219
G1 X124.081 Y84.169 E4.16156
G1 X124.846 Y84.367 E4.20098
G1 X125.586 Y84.641 E4.24035
G1 X126.295 Y84.989 E4.27975
G1 X126.966 Y85.407 E4.31919
G1 X127.59 Y85.89 E4.35856
G1 X128.163 Y86.433 E4.39794
G1 X128.678 Y87.032 E4.43736
G1 X129.129 Y87.68 E4.47674
G1 X129.513 Y88.371 E4.51618
G1 X129.825 Y89.096 E4.55556
G1 X129.97 Y89.525 E4.57815
G1 X130.712 Y91.947 E4.70453
G1 X130.883 Y92.627 E4.73951
G1 X131.237 Y93.145 E4.77081
G1 X131.615 Y93.838 E4.8102
G1 X131.92 Y94.566 E4.84958
G1 X132.15 Y95.322 E4.889
G1 X132.324 Y96.255 E4.93635
G1 X132.677 Y99.104 E5.07957
G1 X132.734 Y99.891 E5.11894
G1 X132.711 Y100.681 E5.15837
G1 X132.609 Y101.464 E5.19776
G1 X132.428 Y102.233 E5.23718
G1 X132.17 Y102.979 E5.27656
G1 X131.839 Y103.696 E5.31596
G1 X131.436 Y104.375 E5.35535
G1 X130.967 Y105.01 E5.39473
G1 X130.435 Y105.594 E5.43415
G1 X129.848 Y106.122 E5.47354
G1 X129.21 Y106.588 E5.51295
G1 X128.529 Y106.986 E5.55231
G1 X127.81 Y107.314 E5.59173
G1 X127.062 Y107.568 E5.63114
G1 X126.069 Y107.78 E5.6818
G1 X123.808 Y108.112 E5.79581
G1 X123.022 Y108.187 E5.8352
G1 X122.232 Y108.182 E5.87462
G1 X121.447 Y108.098 E5.91401
G1 X120.675 Y107.934 E5.95338
G1 X119.923 Y107.693 E5.99278
G1 X119.199 Y107.378 E6.03217
G1 X118.52 Y106.996 E6.07104
G1 X117.114 Y106.111 E6.15392
G1 X116.544 Y105.711 E6.18866
G1 X115.83 Y105.997 E6.22704
G1 X115.071 Y106.216 E6.26645
G1 X114.294 Y106.357 E6.30585
G1 X113.507 Y106.418 E6.34523
G1 X112.718 Y106.4 E6.3846
G1 X111.934 Y106.302 E6.42402
G1 X111.164 Y106.125 E6.46344
G1 X110.183 Y105.774 E6.51542
G1 X107.387 Y104.558 E6.66753
G1 X107.337 Y104.533 E6.67032
G1 X107.388 Y104.773 E6.68256
G1 X107.53 Y105.725 E6.73058
G1 X107.623 Y106.8 E6.78441
G1 X107.651 Y107.589 E6.8238
G1 X107.6 Y108.373 E6.863
G1 X107.595 Y108.416 E6.86516
G1 X107.464 Y109.195 E6.90457
G1 X107.268 Y109.917 E6.94189
G1 X106.796 Y111.375 E7.01835
G1 X106.515 Y112.113 E7.05775
G1 X106.335 Y112.472 E7.07778
G1 X106.555 Y112.785 E7.09687
G1 X106.942 Y113.473 E7.13625
G1 X107.257 Y114.197 E7.17564
G1 X107.498 Y114.95 E7.21509
G1 X107.661 Y115.722 E7.25445
G1 X107.746 Y116.507 E7.29384
G1 X107.75 Y117.297 E7.33326
G1 X107.667 Y118.134 E7.37522
G1 X107.248 Y120.855 E7.51257
G1 X107.147 Y121.415 E7.54096
G1 X106.888 Y123.21 E7.63144
G1 X106.735 Y123.985 E7.67085
G1 X106.676 Y124.179 E7.68097
G1 X106.846 Y124.677 E7.70722
G1 X107.025 Y125.446 E7.74661
G1 X107.125 Y126.23 E7.78605
G1 X107.146 Y127.019 E7.82542
G1 X107.142 Y127.218 E7.83535
G1 X107.135 Y128.321 E7.89038
G1 X107.035 Y129.609 E7.95483
G1 X106.996 Y130.363 E7.9925
G1 X106.915 Y131.148 E8.03187
G1 X106.755 Y131.922 E8.07131
G1 X106.518 Y132.675 E8.11069
G1 X106.206 Y133.4 E8.15007
G1 X105.822 Y134.09 E8.18946
G1 X105.318 Y134.805 E8.23311
G1 X104.595 Y135.717 E8.29117
G1 X104.074 Y136.31 E8.33055
G1 X103.495 Y136.847 E8.36995
G1 X102.865 Y137.323 E8.40934
G1 X102.191 Y137.733 E8.4487
G1 X101.478 Y138.073 E8.48811
G1 X100.734 Y138.339 E8.52753
G1 X99.968 Y138.528 E8.56689
G1 X99.186 Y138.639 E8.6063
G1 X98.135 Y138.663 E8.65874
G1 X96.857 Y138.606 E8.72257
G1 X96.071 Y138.531 E8.76196
G1 X95.297 Y138.377 E8.80133
G1 X94.542 Y138.145 E8.84074
G1 X93.814 Y137.838 E8.88015
G1 X93.121 Y137.46 E8.91954
G1 X92.47 Y137.013 E8.95893
G1 X91.868 Y136.502 E8.99833
G1 X91.32 Y135.933 E9.03774
G1 X90.616 Y134.988 E9.09653
G1 X90.001 Y134.017 E9.15388
G1 X89.612 Y133.329 E9.19331
G1 X89.296 Y132.606 E9.23267
G1 X89.054 Y131.854 E9.27208
G1 X88.889 Y131.081 E9.31152
G1 X88.803 Y130.296 E9.35092
G1 X88.79 Y129.775 E9.37692
G1 X88.807 Y127.819 E9.47451
G1 X88.854 Y127.031 E9.51389
G1 X88.98 Y126.251 E9.55331
G1 X89.185 Y125.489 E9.59268
G1 X89.293 Y125.149 E9.61047
G1 X89.572 Y124.41 E9.64988
G1 X89.884 Y123.777 E9.68509
G1 X89.973 Y123.615 E9.69431
G1 X89.961 Y123.568 E9.69673
G1 X89.841 Y122.788 E9.73611
G1 X89.807 Y122.313 E9.75986
G1 X89.592 Y117.082 E10.02106
G1 X89.599 Y116.293 E10.06042
G1 X89.686 Y115.508 E10.09983
G1 X89.853 Y114.736 E10.13923
G1 X90.096 Y113.985 E10.17861
G1 X90.414 Y113.262 E10.21802
G1 X90.804 Y112.575 E10.25743
G1 X91.261 Y111.931 E10.29683
G1 X91.683 Y111.449 E10.32879
G1 X91.556 Y111.075 E10.3485
G1 X91.352 Y110.143 E10.39609
G1 X91.323 Y109.957 E10.40549
G1 X91.169 Y109.337 E10.43736
G1 X91.017 Y108.562 E10.47676
G1 X90.945 Y107.775 E10.51619
G1 X90.94 Y107.256 E10.54208
G1 X90.995 Y106.468 E10.58149
G1 X91.129 Y105.69 E10.62088
G1 X91.246 Y105.232 E10.64446
G1 X91.693 Y103.687 E10.7247
G1 X91.132 Y103.854 E10.7539
G1 X88.192 Y104.57 E10.90487
G1 X87.416 Y104.718 E10.94428
G1 X86.629 Y104.787 E10.98369
G1 X85.84 Y104.776 E11.02306
G1 X85.055 Y104.684 E11.06249
G1 X84.284 Y104.515 E11.10187
G1 X83.534 Y104.267 E11.14128
G1 X82.813 Y103.946 E11.18066
G1 X82.6 Y103.824 E11.1929
G1 X82.511 Y103.893 E11.19852
G1 X81.841 Y104.311 E11.23792
G1 X81.133 Y104.659 E11.27728
G1 X80.392 Y104.934 E11.31671
G1 X79.628 Y105.133 E11.3561
G1 X78.847 Y105.253 E11.39552
G1 X77.718 Y105.287 E11.45187
G1 X76.934 Y105.231 E11.49109
G1 X75.439 Y105.087 E11.56602
G1 X74.658 Y104.971 E11.60541
G1 X73.893 Y104.776 E11.64479
G1 X73.367 Y104.612 E11.67228
G1 X72.6 Y104.424 E11.71168
G1 X71.856 Y104.16 E11.75107
G1 X71.142 Y103.822 E11.79048
G1 X70.466 Y103.414 E11.82987
G1 X69.835 Y102.939 E11.86927
G1 X69.256 Y102.403 E11.90864
G1 X68.733 Y101.811 E11.94805
G1 X68.273 Y101.169 E11.98745
G1 X67.913 Y100.572 E12.02223
G1 X67.556 Y99.867 E12.06166
G1 X67.272 Y99.13 E12.10106
G1 X67.063 Y98.369 E12.14043
G1 X66.933 Y97.59 E12.17984
G1 X66.883 Y96.802 E12.21923
G1 X66.912 Y96.013 E12.25862
G1 X67.021 Y95.23 E12.29806
G1 X67.206 Y94.471 E12.33703
G1 X67.951 Y91.968 E12.46732
G1 X68.214 Y91.223 E12.50674
G1 X68.552 Y90.509 E12.54615
G1 X68.959 Y89.833 E12.58552
G1 X69.433 Y89.201 E12.62493
G1 X69.969 Y88.621 E12.66433
G1 X70.56 Y88.098 E12.7037
G0 F3600 X70.904 Y88.336
G1 F1800 X71.536 Y87.898 E12.74207
G1 X72.211 Y87.528 E12.78047
G1 X72.92 Y87.231 E12.81882
G1 X73.329 Y87.048 E12.84117
G1 X74.035 Y86.743 E12.87954
G1 X74.769 Y86.512 E12.91793
G1 X75.523 Y86.359 E12.95632
G1 X76.288 Y86.285 E12.99466
G1 X77.057 Y86.291 E13.03303
G1 X77.212 Y86.295 E13.04076
G1 X77.973 Y86.177 E13.07918
G1 X78.908 Y86.109 E13.12595
G1 X79.772 Y86.098 E13.16906
G1 X81.075 Y86.157 E13.23414
G1 X81.232 Y86.156 E13.24197
G1 X82 Y86.19 E13.28032
G1 X82.676 Y86.29 E13.31441
G1 X83.37 Y86.359 E13.34921
G1 X84.003 Y86.439 E13.38104
G1 X83.867 Y86.001 E13.40392
G1 X83.71 Y85.248 E13.4423
G1 X83.624 Y84.232 E13.49317
G1 X83.594 Y83.769 E13.51631
G1 X83.555 Y83.001 E13.55468
G1 X83.596 Y82.233 E13.59305
G1 X83.717 Y81.473 E13.63144
G1 X83.916 Y80.73 E13.66982
G1 X84.191 Y80.012 E13.70818
G1 X84.539 Y79.326 E13.74655
G1 X84.956 Y78.68 E13.78491
G1 X85.438 Y78.081 E13.82327
G1 X85.98 Y77.535 E13.86166
G1 X86.576 Y77.048 E13.90005
G1 X87.218 Y76.626 E13.93838
G1 X87.902 Y76.272 E13.97681
G1 X88.517 Y76.026 E14.00985
G1 X88.889 Y75.9 E14.02945
G1 X89.08 Y75.729 E14.04224
G1 X89.703 Y75.278 E14.08061
G1 X90.369 Y74.893 E14.11899
G1 X91.072 Y74.58 E14.15738
G1 X91.195 Y74.54 E14.16383
G1 X91.199 Y74.367 E14.17247
G1 X91.3 Y73.584 E14.21185
G1 X91.327 Y73.437 E14.21931
G1 X91.505 Y72.689 E14.25767
G1 X91.879 Y71.689 E14.31094
G1 X91.99 Y71.447 E14.32422
G1 X92.308 Y70.837 E14.35854
G1 X92.533 Y70.084 E14.39775
G1 X92.666 Y69.569 E14.42428
G1 X92.68 Y69.491 E14.42824
G1 X92.858 Y68.743 E14.4666
G1 X93.075 Y68.101 E14.50041
G1 X93.103 Y68.002 E14.50554
G1 X93.384 Y67.286 E14.54391
G1 X93.739 Y66.603 E14.58232
G1 X94.162 Y65.961 E14.62067
G1 X94.649 Y65.366 E14.65903
G1 X95.196 Y64.825 E14.69742
G1 X95.882 Y64.262 E14.74169
G1 X96.507 Y63.813 E14.78009
G1 X97.175 Y63.432 E14.81845
G1 X97.759 Y63.168 E14.85043
G1 X97.909 Y63.108 E14.85849
G1 X98.637 Y62.86 E14.89686
G1 X99.387 Y62.689 E14.93523
G1 X100.15 Y62.596 E14.97358
G1 X100.919 Y62.584 E15.01195
G1 X101.559 Y62.64 E15.044
G1 X101.949 Y62.64 E15.06346
G1 X102.714 Y62.721 E15.10184
G1 X102.982 Y62.73 E15.11522
G1 X103.746 Y62.821 E15.1536
G1 X104.496 Y62.991 E15.19197
G1 X105.225 Y63.238 E15.23037
G1 X105.706 Y63.449 E15.25658
G1 X106.143 Y63.66 E15.28079
G1 X106.817 Y64.03 E15.31915
G1 X107.449 Y64.468 E15.35751
G1 X108.033 Y64.969 E15.3959
G1 X108.561 Y65.528 E15.43426
G1 X109.028 Y66.139 E15.47263
G1 X109.43 Y66.795 E15.51101
G1 X109.888 Y67.817 E15.56688
G1 X110.109 Y68.506 E15.60298
G1 X110.275 Y68.992 E15.62861
G1 X110.447 Y69.742 E15.667
G1 X110.539 Y70.505 E15.70534
G1 X110.551 Y71.165 E15.73827
G1 X110.664 Y71.91 E15.77586
G1 X110.852 Y72.398 E15.80195
G1 X111.057 Y73.117 E15.83925
G1 X111.219 Y73.869 E15.87763
G1 X111.301 Y74.634 E15.91602
G1 X111.304 Y75.403 E15.95438
G1 X111.271 Y75.735 E15.97103
G1 X111.915 Y76.09 E16.00772
G1 X112.546 Y76.529 E16.04607
G1 X113.129 Y77.031 E16.08445
G1 X113.663 Y77.6 E16.12338
G1 X114.23 Y77.904 E16.15548
G1 X114.483 Y78.063 E16.17038
G1 X115.112 Y78.505 E16.20874
G1 X115.691 Y79.011 E16.2471
G1 X116.216 Y79.574 E16.28551
G1 X116.678 Y80.188 E16.32384
G1 X117.075 Y80.847 E16.36223
G1 X117.401 Y81.543 E16.40057
G1 X117.653 Y82.27 E16.43896
G1 X117.828 Y83.019 E16.47733
G1 X117.925 Y83.782 E16.5157
G1 X117.942 Y84.551 E16.55408
G1 X117.901 Y85.044 E16.57876
G1 X119.299 Y84.68 E16.65083
G1 X119.889 Y84.552 E16.68095
G1 X120.066 Y84.521 E16.68992
G1 X120.83 Y84.428 E16.72831
G1 X121.343 Y84.41 E16.75392
G1 X122.512 Y84.41 E16.81224
G1 X123.28 Y84.45 E16.85061
G1 X124.04 Y84.569 E16.88899
G1 X124.783 Y84.767 E16.92735
G1 X125.502 Y85.041 E16.96574
G1 X126.188 Y85.388 E17.00409
G1 X126.835 Y85.804 E17.04247
G1 X127.435 Y86.285 E17.08084
G1 X127.982 Y86.826 E17.11922
G1 X128.47 Y87.421 E17.15761
G1 X128.893 Y88.063 E17.19597
G1 X129.248 Y88.746 E17.23437
G1 X129.587 Y89.642 E17.28216
G1 X130.329 Y92.064 E17.40854
G1 X130.512 Y92.795 E17.44614
G1 X130.592 Y92.895 E17.45253
G1 X131.008 Y93.543 E17.49094
G1 X131.354 Y94.229 E17.52927
G1 X131.628 Y94.948 E17.56766
G1 X131.825 Y95.692 E17.60606
G1 X131.927 Y96.304 E17.63701
G1 X132.28 Y99.153 E17.78024
G1 X132.335 Y99.92 E17.8186
G1 X132.309 Y100.689 E17.85699
G1 X132.205 Y101.451 E17.89536
G1 X132.021 Y102.198 E17.93374
G1 X131.761 Y102.922 E17.97212
G1 X131.428 Y103.615 E18.01048
G1 X131.024 Y104.27 E18.04887
G1 X130.555 Y104.879 E18.08722
G1 X130.024 Y105.436 E18.12561
G1 X129.439 Y105.935 E18.16397
G1 X128.805 Y106.371 E18.20236
G1 X128.13 Y106.738 E18.24069
G1 X127.419 Y107.034 E18.27912
G1 X126.682 Y107.254 E18.31749
G1 X126.011 Y107.384 E18.35159
G1 X123.75 Y107.716 E18.4656
G1 X122.984 Y107.789 E18.50399
G1 X122.215 Y107.781 E18.54236
G1 X121.451 Y107.693 E18.58072
G1 X120.7 Y107.527 E18.6191
G1 X119.971 Y107.283 E18.65745
G1 X119.27 Y106.965 E18.69585
G1 X118.733 Y106.658 E18.72671
G1 X117.327 Y105.773 E18.8096
G1 X116.698 Y105.33 E18.84798
G1 X116.59 Y105.235 E18.85516
G1 X116.286 Y105.389 E18.87216
G1 X115.567 Y105.663 E18.91054
G1 X114.824 Y105.861 E18.94891
G1 X114.064 Y105.981 E18.98729
G1 X113.296 Y106.021 E19.02566
G1 X112.528 Y105.981 E19.06403
G1 X111.768 Y105.862 E19.10241
G1 X111.025 Y105.664 E19.14077
G1 X110.343 Y105.407 E19.17713
G1 X107.547 Y104.191 E19.32924
G1 X106.858 Y103.848 E19.36764
G1 X106.759 Y103.785 E19.3735
G1 X106.821 Y104.03 E19.38611
G1 X106.997 Y104.857 E19.42829
G1 X107.131 Y105.759 E19.47378
G1 X107.224 Y106.834 E19.52762
G1 X107.251 Y107.603 E19.566
G1 X107.202 Y108.327 E19.60221
G1 X107.197 Y108.37 E19.60437
G1 X107.069 Y109.128 E19.64272
G1 X106.887 Y109.794 E19.67716
G1 X106.415 Y111.252 E19.75362
G1 X106.141 Y111.971 E19.79201
G1 X105.871 Y112.503 E19.82177
G1 X105.906 Y112.545 E19.8245
G1 X106.331 Y113.186 E19.86287
G1 X106.687 Y113.868 E19.90125
G1 X106.97 Y114.583 E19.93962
G1 X107.178 Y115.324 E19.97801
G1 X107.307 Y116.082 E20.01637
G1 X107.357 Y116.85 E20.05477
G1 X107.328 Y117.618 E20.09311
G1 X107.272 Y118.073 E20.11599
G1 X106.853 Y120.794 E20.25334
G1 X106.752 Y121.354 E20.28173
